X:1
T:Title
%%score { ( 1 3 ) | ( 2 4 ) }
L:1/8
M:6/4
K:Db
V:1 treble nm="Grand Piano"
V:3 treble 
V:2 bass 
V:4 bass 
V:1
 z6 z4[Q:1/4=100] [DF]>[EG] | [FA]4 [Fd]2 [A,FA]4 z z/ E/ | %2
 [DF]4[K:bass] [G,CE]2 [F,D]4[K:treble] [A,CE]2 | [DF]3 G .[DFA]2 [CEA]4 .[B,E=G]2 | %4
[M:5/4] [CA]2- [CA]2- [CA]6 |[M:1/4] [EG]2 |[M:6/4] F3 E D2 G3 F E2 | A4 d2 d4 B2 | %8
 A2 d2 [DF]2 [A,CF]4[K:bass] [G,CE]2 |[M:5/4] [F,A,D]2- [F,A,D]2- [F,A,D]6 | %10
[M:1/4][K:treble] [DFA]2 |[M:6/4] [Fd]4 [Ac][GB] [FA]4 [FA]>[GB] | [FA]2 D2 E2 F4 [Fd]2 | %13
 [Fd]4 [Ec][FB] A2 E2 B2 | [A,CA]6- [A,CA]4 [CGA][CGA] | [CGA]2 [Gc]2 [Ge]2 [Fd]4 [FA][Fd] | %16
 [Ac]2 B3 =A B4 GB | A3 F d2 [Gc]2 [GA]2 [Ge]2 |[M:5/4] d2- [Fd-]2 [Gd-]2 [Fd]4 |] %19
V:2
 z6 z4 [D,A,]2 | [D,D]4 [D,A,]2 D,4 F,>G, | A,4 A,,2 D,4 A,,2 | %3
 z2 z .E2[K:treble] d[K:bass] E,4 z D |[M:5/4] [A,,A,]2- [A,,A,]2- [A,,A,]6 |[M:1/4] [A,,A,]2 | %6
[M:6/4] A,3- [G,A,C] [F,A,]2 C3- [A,C] [G,A,C]2 | [F,A,D]4 [F,A,D]2 [G,B,D]4[K:treble] [G,DG]2 | %8
 .[A,D]6[K:bass] z6 |[M:5/4] D,2- D,2- D,6 |[M:1/4] D,2 | %11
[M:6/4] [D,A,]4 [D,D][D,D] [D,D]4 [D,D]>[D,D] | [D,D]2 [F,A,]2 [E,A,C]2 [D,A,D]4 [D,A,]2 | %13
 [B,,B,]4 [C,A,][D,D] [E,CE]2 [E,A,C]2 [E,=G,D]2 | A,,6- A,,4 A,,A,, | %15
 A,,2 [A,,A,]2 [A,,A,]2 [D,A,]4 [D,D][D,D] | %16
 [G,D]2 [G,DG]3 [G,DG] [G,DG]4 [G,B,D][K:treble][G,DG] | %17
 [A,DF]3 [A,D] [A,F]2[K:bass] [A,,A,]2 [A,,A,]2 [A,,A,]2 |[M:5/4] A,2 z2 z2 z4 |] %19
V:3
 x12 | z6 z4 [A,D]2 | x4[K:bass] x6[K:treble] x2 | .A,6 z6 |[M:5/4] x10 |[M:1/4] x2 |[M:6/4] x12 | %7
 x12 | x10[K:bass] x2 |[M:5/4] x10 |[M:1/4][K:treble] x2 |[M:6/4] x12 | x12 | x12 | x12 | x12 | %16
 x12 | x12 |[M:5/4] F2 z2 z2 z4 |] %19
V:4
 x12 | x12 | x12 | D,4 D,2[K:treble][K:bass] z4 E,2 |[M:5/4] x10 |[M:1/4] x2 | %6
[M:6/4] .[D,D]6 .[E,A,]6 | x10[K:treble] x2 | F2- [A,F]2[K:bass] A,2 A,,4 A,,2 |[M:5/4] x10 | %10
[M:1/4] x2 |[M:6/4] x12 | x12 | x12 | x12 | x12 | x11[K:treble] x | x6[K:bass] x6 | %18
[M:5/4] D,2- [D,-A,]2 [D,-B,]2 [D,A,]4 |] %19

